;FLAVOR:RepRap
;TIME:2691
;Filament used: 6.94045m, 0m
;Layer height: 0.2
;MINX:-104.05
;MINY:-104.05
;MINZ:0.3
;MAXX:104.05
;MAXY:104.05
;MAXZ:7.5
;Generated with Cura_SteamEngine 4.6.2
T0
M190 S60
M104 S205
M109 S205
M82 ;absolute extrusion mode
;=== SeeMeCNC PRINTER SETTINGS =========
;=== OPTIMIZED FOR CURA 4.6.2  =========
M203 Z10000  ;===PRINTER BEGIN G-CODE===
G28
G1 X0 Y-230 Z0.3 F8000
G1 F200 E3
G92 E0       ;==========================
M82 ;absolute extrusion mode
G91           ;=======EXTRUDER 1 BEGIN GCODE=======
G1 Z1 F10000
G90
G1 X0 Y-230 F10000
T0 P0         ;=== SELECT TOOL DO NOT RUN MACROS ==
G92 E0
G1 E145 F4000
G92 E0
G1 E15 F500
G92 E0        ;====================================
M83 ;relative extrusion mode
M83 ;relative extrusion mode
G1 F3600 E-9
;LAYER_COUNT:32
;LAYER:0
M107
G1 F3600 Z1.3
G0 F9600 X51.129 Y-103.305 Z1.3
;TYPE:SKIRT
G1 F3600 Z0.3
G1 F3600 E9
G1 F1800 X53.424 Y-103.212 E0.20054
G1 X54.234 Y-103.168 E0.07082
G1 X54.977 Y-103.093 E0.0652
G1 X57.819 Y-102.745 E0.24998
G1 X58.587 Y-102.64 E0.06768
G1 X59.419 Y-102.485 E0.07389
G1 X62.192 Y-101.91 E0.24725
G1 X62.886 Y-101.756 E0.06207
G1 X63.737 Y-101.523 E0.07703
G1 X66.365 Y-100.746 E0.23926
G1 X67.156 Y-100.501 E0.0723
G1 X67.868 Y-100.243 E0.06612
G1 X70.582 Y-99.191 E0.25413
G1 X71.245 Y-98.923 E0.06244
G1 X71.974 Y-98.587 E0.07008
G1 X74.522 Y-97.348 E0.24737
G1 X75.236 Y-96.988 E0.06981
G1 X75.92 Y-96.602 E0.06857
G1 X78.33 Y-95.172 E0.24466
G1 X79.02 Y-94.748 E0.07071
G1 X79.664 Y-94.312 E0.0679
G1 X82.001 Y-92.65 E0.25037
G1 X82.596 Y-92.214 E0.0644
G1 X83.211 Y-91.72 E0.06887
G1 X85.393 Y-89.88 E0.2492
G1 X85.993 Y-89.36 E0.06932
G1 X86.594 Y-88.784 E0.07268
G1 X88.605 Y-86.781 E0.24781
G1 X89.103 Y-86.27 E0.0623
G1 X89.651 Y-85.654 E0.07198
G1 X91.468 Y-83.517 E0.2449
G1 X91.984 Y-82.895 E0.07056
G1 X92.471 Y-82.244 E0.07098
G1 X94.12 Y-79.944 E0.24709
G1 X94.551 Y-79.324 E0.06593
G1 X95.003 Y-78.6 E0.07452
G1 X96.462 Y-76.162 E0.24806
G1 X96.808 Y-75.565 E0.06024
G1 X97.187 Y-74.835 E0.07181
G1 X98.402 Y-72.363 E0.24049
G1 X98.76 Y-71.61 E0.07279
G1 X99.099 Y-70.797 E0.0769
G1 X100.118 Y-68.2 E0.24357
G1 X100.378 Y-67.512 E0.06421
G1 X100.638 Y-66.704 E0.07411
G1 X101.438 Y-64.039 E0.24293
G1 X101.657 Y-63.271 E0.06973
G1 X101.84 Y-62.489 E0.07012
G1 X102.421 Y-59.742 E0.24514
G1 X102.578 Y-58.945 E0.07092
G1 X102.698 Y-58.125 E0.07235
G1 X103.046 Y-55.385 E0.24115
G1 X103.137 Y-54.58 E0.07073
G1 X103.191 Y-53.718 E0.07541
G1 X103.309 Y-51.012 E0.23648
G1 X103.344 Y-49.854 E0.10115
G1 X103.35 Y47.686 E8.51601
G1 X103.35 Y48.95 E0.11036
G1 X103.305 Y51.129 E0.19028
G1 X103.212 Y53.424 E0.20054
G1 X103.168 Y54.235 E0.07091
G1 X103.093 Y54.977 E0.06511
G1 X102.745 Y57.819 E0.24998
G1 X102.64 Y58.587 E0.06768
G1 X102.485 Y59.419 E0.07389
G1 X101.91 Y62.192 E0.24725
G1 X101.756 Y62.886 E0.06207
G1 X101.523 Y63.737 E0.07703
G1 X100.746 Y66.365 E0.23926
G1 X100.507 Y67.136 E0.07047
G1 X100.244 Y67.865 E0.06766
G1 X99.19 Y70.583 E0.25452
G1 X98.924 Y71.242 E0.06205
G1 X98.587 Y71.974 E0.07036
G1 X97.348 Y74.522 E0.24737
G1 X96.988 Y75.236 E0.06981
G1 X96.598 Y75.924 E0.06905
G1 X95.171 Y78.33 E0.24423
G1 X94.751 Y79.016 E0.07023
G1 X94.316 Y79.659 E0.06778
G1 X92.648 Y82.003 E0.25118
G1 X92.215 Y82.596 E0.06411
G1 X91.715 Y83.216 E0.06954
G1 X89.88 Y85.393 E0.24858
G1 X89.36 Y85.993 E0.06932
G1 X88.787 Y86.592 E0.07237
G1 X86.782 Y88.605 E0.24806
G1 X86.268 Y89.105 E0.06261
G1 X85.657 Y89.649 E0.07142
G1 X83.516 Y91.469 E0.24534
G1 X82.904 Y91.976 E0.06939
G1 X82.247 Y92.468 E0.07166
G1 X79.943 Y94.12 E0.24752
G1 X79.322 Y94.552 E0.06605
G1 X78.605 Y95.001 E0.07386
G1 X76.163 Y96.462 E0.24845
G1 X75.562 Y96.809 E0.06059
G1 X74.834 Y97.187 E0.07162
G1 X72.313 Y98.426 E0.24525
G1 X71.594 Y98.767 E0.06948
G1 X70.794 Y99.099 E0.07562
G1 X68.2 Y100.117 E0.24329
G1 X67.51 Y100.377 E0.06438
G1 X66.712 Y100.635 E0.07322
G1 X64.04 Y101.438 E0.24359
G1 X63.268 Y101.657 E0.07006
G1 X62.494 Y101.84 E0.06944
G1 X59.742 Y102.422 E0.24559
G1 X58.941 Y102.579 E0.07126
G1 X58.125 Y102.698 E0.072
G1 X55.385 Y103.046 E0.24115
G1 X54.577 Y103.137 E0.07099
G1 X53.719 Y103.191 E0.07506
G1 X50.957 Y103.311 E0.24137
G1 X49.874 Y103.344 E0.0946
G1 X-47.691 Y103.35 E8.51819
G1 X-48.95 Y103.35 E0.10992
G1 X-51.129 Y103.305 E0.19028
G1 X-53.424 Y103.212 E0.20054
G1 X-54.235 Y103.168 E0.07091
G1 X-54.977 Y103.093 E0.06511
G1 X-57.819 Y102.745 E0.24998
G1 X-58.587 Y102.64 E0.06768
G1 X-59.419 Y102.485 E0.07389
G1 X-62.192 Y101.91 E0.24725
G1 X-62.886 Y101.756 E0.06207
G1 X-63.737 Y101.523 E0.07703
G1 X-66.365 Y100.746 E0.23926
G1 X-67.156 Y100.501 E0.0723
G1 X-67.868 Y100.243 E0.06612
G1 X-70.582 Y99.191 E0.25413
G1 X-71.245 Y98.923 E0.06244
G1 X-71.974 Y98.587 E0.07008
G1 X-74.522 Y97.348 E0.24737
G1 X-75.236 Y96.988 E0.06981
G1 X-75.92 Y96.602 E0.06857
G1 X-78.33 Y95.172 E0.24466
G1 X-79.02 Y94.748 E0.07071
G1 X-79.664 Y94.312 E0.0679
G1 X-82.003 Y92.649 E0.25057
G1 X-82.596 Y92.215 E0.06416
G1 X-83.213 Y91.718 E0.06917
G1 X-85.393 Y89.88 E0.24895
G1 X-85.993 Y89.36 E0.06932
G1 X-86.594 Y88.784 E0.07268
G1 X-88.605 Y86.781 E0.24781
G1 X-89.103 Y86.27 E0.0623
G1 X-89.651 Y85.654 E0.07198
G1 X-91.468 Y83.517 E0.2449
G1 X-91.984 Y82.895 E0.07056
G1 X-92.471 Y82.244 E0.07098
G1 X-94.12 Y79.944 E0.24709
G1 X-94.551 Y79.324 E0.06593
G1 X-95.003 Y78.6 E0.07452
G1 X-96.462 Y76.162 E0.24806
G1 X-96.812 Y75.558 E0.06095
G1 X-97.189 Y74.83 E0.07158
G1 X-98.426 Y72.313 E0.24486
G1 X-98.767 Y71.594 E0.06948
G1 X-99.099 Y70.794 E0.07562
G1 X-100.117 Y68.2 E0.24329
G1 X-100.379 Y67.505 E0.06485
G1 X-100.637 Y66.708 E0.07314
G1 X-101.438 Y64.039 E0.24329
G1 X-101.657 Y63.271 E0.06973
G1 X-101.84 Y62.489 E0.07012
G1 X-102.421 Y59.742 E0.24514
G1 X-102.578 Y58.945 E0.07092
G1 X-102.698 Y58.125 E0.07235
G1 X-103.046 Y55.385 E0.24115
G1 X-103.137 Y54.577 E0.07099
G1 X-103.191 Y53.719 E0.07506
G1 X-103.311 Y50.957 E0.24137
G1 X-103.344 Y49.853 E0.09643
G1 X-103.35 Y-47.686 E8.51592
G1 X-103.35 Y-48.95 E0.11036
G1 X-103.305 Y-51.129 E0.19028
G1 X-103.212 Y-53.424 E0.20054
G1 X-103.168 Y-54.235 E0.07091
G1 X-103.093 Y-54.977 E0.06511
G1 X-102.745 Y-57.819 E0.24998
G1 X-102.64 Y-58.587 E0.06768
G1 X-102.485 Y-59.419 E0.07389
G1 X-101.91 Y-62.192 E0.24725
G1 X-101.756 Y-62.886 E0.06207
G1 X-101.523 Y-63.737 E0.07703
G1 X-100.746 Y-66.365 E0.23926
G1 X-100.501 Y-67.156 E0.0723
G1 X-100.243 Y-67.868 E0.06612
G1 X-99.191 Y-70.582 E0.25413
G1 X-98.923 Y-71.245 E0.06244
G1 X-98.587 Y-71.974 E0.07008
G1 X-97.348 Y-74.522 E0.24737
G1 X-96.988 Y-75.236 E0.06981
G1 X-96.602 Y-75.92 E0.06857
G1 X-95.172 Y-78.33 E0.24466
G1 X-94.748 Y-79.02 E0.07071
G1 X-94.312 Y-79.664 E0.0679
G1 X-92.65 Y-82.001 E0.25037
G1 X-92.215 Y-82.597 E0.06442
G1 X-91.718 Y-83.213 E0.0691
G1 X-89.88 Y-85.393 E0.24895
G1 X-89.36 Y-85.993 E0.06932
G1 X-88.784 Y-86.594 E0.07268
G1 X-86.781 Y-88.605 E0.24781
G1 X-86.258 Y-89.115 E0.06378
G1 X-85.649 Y-89.655 E0.07106
G1 X-83.517 Y-91.468 E0.24434
G1 X-82.893 Y-91.984 E0.07069
G1 X-82.244 Y-92.469 E0.07074
G1 X-79.943 Y-94.12 E0.24726
G1 X-79.326 Y-94.55 E0.06566
G1 X-78.6 Y-95.003 E0.07471
G1 X-76.162 Y-96.462 E0.24806
G1 X-75.565 Y-96.808 E0.06024
G1 X-74.835 Y-97.187 E0.07181
G1 X-72.314 Y-98.426 E0.24525
G1 X-71.591 Y-98.769 E0.06987
G1 X-70.798 Y-99.098 E0.07496
G1 X-68.2 Y-100.118 E0.24368
G1 X-67.512 Y-100.378 E0.06421
G1 X-66.704 Y-100.638 E0.07411
G1 X-64.039 Y-101.438 E0.24293
G1 X-63.271 Y-101.657 E0.06973
G1 X-62.489 Y-101.84 E0.07012
G1 X-59.742 Y-102.421 E0.24514
G1 X-58.945 Y-102.578 E0.07092
G1 X-58.125 Y-102.698 E0.07235
G1 X-55.385 Y-103.046 E0.24115
G1 X-54.577 Y-103.137 E0.07099
G1 X-53.719 Y-103.191 E0.07506
G1 X-50.957 Y-103.311 E0.24137
G1 X-49.852 Y-103.344 E0.09652
G1 X47.691 Y-103.35 E8.51627
G1 X48.95 Y-103.35 E0.10992
G1 X51.129 Y-103.305 E0.19028
G0 F9600 X51.143 Y-104.005
G1 F1800 X53.452 Y-103.912 E0.20176
G1 X54.273 Y-103.867 E0.07179
G1 X55.051 Y-103.789 E0.06827
G1 X57.904 Y-103.44 E0.25095
G1 X58.683 Y-103.333 E0.06865
G1 X59.551 Y-103.173 E0.07706
G1 X62.334 Y-102.595 E0.24816
G1 X63.038 Y-102.44 E0.06294
G1 X63.926 Y-102.197 E0.08038
G1 X66.564 Y-101.418 E0.24015
G1 X67.364 Y-101.169 E0.07315
G1 X68.11 Y-100.9 E0.06924
G1 X70.835 Y-99.844 E0.25515
G1 X71.508 Y-99.571 E0.06341
G1 X72.27 Y-99.221 E0.07321
G1 X74.829 Y-97.977 E0.24842
G1 X75.551 Y-97.613 E0.07059
G1 X76.268 Y-97.209 E0.07185
G1 X78.687 Y-95.774 E0.24556
G1 X79.387 Y-95.344 E0.07173
G1 X80.06 Y-94.889 E0.07093
G1 X82.407 Y-93.221 E0.25139
G1 X83.01 Y-92.779 E0.06528
G1 X83.652 Y-92.263 E0.07191
G1 X85.845 Y-90.415 E0.25038
G1 X86.451 Y-89.889 E0.07006
G1 X87.082 Y-89.286 E0.0762
G1 X89.099 Y-87.277 E0.24855
G1 X89.604 Y-86.759 E0.06316
G1 X90.177 Y-86.116 E0.0752
G1 X92.002 Y-83.97 E0.24595
G1 X92.523 Y-83.342 E0.07124
G1 X93.034 Y-82.659 E0.07447
G1 X94.689 Y-80.352 E0.24789
G1 X95.126 Y-79.723 E0.06687
G1 X95.599 Y-78.968 E0.07779
G1 X97.063 Y-76.521 E0.24896
G1 X97.414 Y-75.916 E0.06107
G1 X97.81 Y-75.154 E0.07498
G1 X99.031 Y-72.672 E0.2415
G1 X99.393 Y-71.911 E0.07358
G1 X99.747 Y-71.062 E0.08031
G1 X100.769 Y-68.456 E0.2444
G1 X101.032 Y-67.759 E0.06504
G1 X101.305 Y-66.914 E0.07753
G1 X102.108 Y-64.24 E0.24376
G1 X102.33 Y-63.463 E0.07055
G1 X102.522 Y-62.645 E0.07336
G1 X103.106 Y-59.887 E0.24613
G1 X103.265 Y-59.08 E0.07181
G1 X103.392 Y-58.222 E0.07573
G1 X103.741 Y-55.473 E0.24194
G1 X103.833 Y-54.658 E0.07161
G1 X103.89 Y-53.757 E0.07882
G1 X104.008 Y-51.042 E0.23726
G1 X104.043 Y-49.875 E0.10193
G1 X104.05 Y47.686 E8.51784
G1 X104.05 Y48.95 E0.11036
G1 X104.005 Y51.143 E0.19151
G1 X103.912 Y53.452 E0.20176
G1 X103.867 Y54.273 E0.07179
G1 X103.789 Y55.052 E0.06835
G1 X103.44 Y57.904 E0.25086
G1 X103.333 Y58.683 E0.06865
G1 X103.173 Y59.551 E0.07706
G1 X102.595 Y62.334 E0.24816
G1 X102.44 Y63.038 E0.06294
G1 X102.197 Y63.926 E0.08038
G1 X101.418 Y66.564 E0.24015
G1 X101.176 Y67.344 E0.0713
G1 X100.901 Y68.107 E0.07081
G1 X99.843 Y70.836 E0.25554
G1 X99.573 Y71.505 E0.06299
G1 X99.221 Y72.27 E0.07352
G1 X97.977 Y74.829 E0.24842
G1 X97.613 Y75.551 E0.07059
G1 X97.205 Y76.273 E0.0724
G1 X95.773 Y78.687 E0.24505
G1 X95.347 Y79.382 E0.07117
G1 X94.894 Y80.054 E0.07076
G1 X93.219 Y82.409 E0.25231
G1 X92.78 Y83.009 E0.06491
G1 X92.258 Y83.658 E0.07272
G1 X90.415 Y85.844 E0.24963
G1 X89.889 Y86.451 E0.07013
G1 X89.29 Y87.078 E0.07571
G1 X87.278 Y89.099 E0.24898
G1 X86.756 Y89.607 E0.06359
G1 X86.12 Y90.174 E0.07439
G1 X83.969 Y92.002 E0.24646
G1 X83.35 Y92.515 E0.07019
G1 X82.663 Y93.031 E0.07501
G1 X80.351 Y94.689 E0.2484
G1 X79.722 Y95.126 E0.06687
G1 X78.972 Y95.597 E0.07732
G1 X76.522 Y97.063 E0.24927
G1 X75.912 Y97.415 E0.06149
G1 X75.153 Y97.81 E0.0747
G1 X72.622 Y99.054 E0.24623
G1 X71.894 Y99.399 E0.07034
G1 X71.059 Y99.747 E0.07898
G1 X68.456 Y100.768 E0.24412
G1 X67.756 Y101.032 E0.06532
G1 X66.924 Y101.303 E0.0764
G1 X64.241 Y102.108 E0.24456
G1 X63.459 Y102.331 E0.071
G1 X62.65 Y102.522 E0.07257
G1 X59.887 Y103.107 E0.24658
G1 X59.075 Y103.266 E0.07224
G1 X58.222 Y103.392 E0.07528
G1 X55.473 Y103.741 E0.24194
G1 X54.655 Y103.833 E0.07187
G1 X53.758 Y103.89 E0.07847
G1 X50.988 Y104.01 E0.24207
G1 X49.895 Y104.043 E0.09547
G1 X-47.691 Y104.05 E8.52002
G1 X-48.95 Y104.05 E0.10992
G1 X-51.143 Y104.005 E0.19151
G1 X-53.452 Y103.912 E0.20176
G1 X-54.273 Y103.867 E0.07179
G1 X-55.052 Y103.789 E0.06835
G1 X-57.904 Y103.44 E0.25086
G1 X-58.683 Y103.333 E0.06865
G1 X-59.551 Y103.173 E0.07706
G1 X-62.334 Y102.595 E0.24816
G1 X-63.038 Y102.44 E0.06294
G1 X-63.926 Y102.197 E0.08038
G1 X-66.564 Y101.418 E0.24015
G1 X-67.364 Y101.169 E0.07315
G1 X-68.11 Y100.9 E0.06924
G1 X-70.835 Y99.844 E0.25515
G1 X-71.508 Y99.571 E0.06341
G1 X-72.27 Y99.221 E0.07321
G1 X-74.829 Y97.977 E0.24842
G1 X-75.551 Y97.613 E0.07059
G1 X-76.268 Y97.209 E0.07185
G1 X-78.687 Y95.774 E0.24556
G1 X-79.387 Y95.344 E0.07173
G1 X-80.06 Y94.889 E0.07093
G1 X-82.408 Y93.219 E0.25156
G1 X-83.009 Y92.78 E0.06498
G1 X-83.655 Y92.261 E0.07235
G1 X-85.845 Y90.415 E0.25007
G1 X-86.451 Y89.889 E0.07006
G1 X-87.082 Y89.286 E0.0762
G1 X-89.099 Y87.277 E0.24855
G1 X-89.604 Y86.759 E0.06316
G1 X-90.177 Y86.116 E0.0752
G1 X-92.002 Y83.97 E0.24595
G1 X-92.523 Y83.342 E0.07124
G1 X-93.034 Y82.659 E0.07447
G1 X-94.689 Y80.352 E0.24789
G1 X-95.126 Y79.723 E0.06687
G1 X-95.599 Y78.968 E0.07779
G1 X-97.063 Y76.521 E0.24896
G1 X-97.418 Y75.908 E0.06185
G1 X-97.812 Y75.148 E0.07474
G1 X-99.054 Y72.622 E0.24576
G1 X-99.399 Y71.894 E0.07034
G1 X-99.747 Y71.059 E0.07898
G1 X-100.768 Y68.456 E0.24412
G1 X-101.034 Y67.752 E0.06571
G1 X-101.304 Y66.919 E0.07645
G1 X-102.108 Y64.24 E0.2442
G1 X-102.33 Y63.463 E0.07055
G1 X-102.522 Y62.645 E0.07336
G1 X-103.106 Y59.887 E0.24613
G1 X-103.265 Y59.08 E0.07181
G1 X-103.392 Y58.222 E0.07573
G1 X-103.741 Y55.473 E0.24194
G1 X-103.833 Y54.655 E0.07187
G1 X-103.89 Y53.758 E0.07847
G1 X-104.01 Y50.988 E0.24207
G1 X-104.043 Y49.874 E0.0973
G1 X-104.05 Y-47.686 E8.51775
G1 X-104.05 Y-48.95 E0.11036
G1 X-104.005 Y-51.143 E0.19151
G1 X-103.912 Y-53.452 E0.20176
G1 X-103.867 Y-54.273 E0.07179
G1 X-103.789 Y-55.052 E0.06835
G1 X-103.44 Y-57.904 E0.25086
G1 X-103.333 Y-58.683 E0.06865
G1 X-103.173 Y-59.551 E0.07706
G1 X-102.595 Y-62.334 E0.24816
G1 X-102.44 Y-63.038 E0.06294
G1 X-102.197 Y-63.926 E0.08038
G1 X-101.418 Y-66.564 E0.24015
G1 X-101.169 Y-67.364 E0.07315
G1 X-100.9 Y-68.11 E0.06924
G1 X-99.844 Y-70.835 E0.25515
G1 X-99.571 Y-71.508 E0.06341
G1 X-99.221 Y-72.27 E0.07321
G1 X-97.977 Y-74.829 E0.24842
G1 X-97.613 Y-75.551 E0.07059
G1 X-97.209 Y-76.268 E0.07185
G1 X-95.774 Y-78.687 E0.24556
G1 X-95.344 Y-79.387 E0.07173
G1 X-94.889 Y-80.06 E0.07093
G1 X-93.221 Y-82.407 E0.25139
G1 X-92.779 Y-83.01 E0.06528
G1 X-92.261 Y-83.655 E0.07223
G1 X-90.415 Y-85.845 E0.25007
G1 X-89.889 Y-86.451 E0.07006
G1 X-89.286 Y-87.082 E0.0762
G1 X-87.277 Y-89.099 E0.24855
G1 X-86.747 Y-89.616 E0.06464
G1 X-86.111 Y-90.182 E0.07433
G1 X-83.97 Y-92.002 E0.24534
G1 X-83.339 Y-92.524 E0.0715
G1 X-82.66 Y-93.033 E0.07409
G1 X-80.351 Y-94.689 E0.24808
G1 X-79.726 Y-95.124 E0.06648
G1 X-78.968 Y-95.599 E0.0781
G1 X-76.521 Y-97.063 E0.24896
G1 X-75.916 Y-97.414 E0.06107
G1 X-75.154 Y-97.81 E0.07498
G1 X-72.623 Y-99.054 E0.24623
G1 X-71.89 Y-99.401 E0.07081
G1 X-71.063 Y-99.746 E0.07823
G1 X-68.456 Y-100.769 E0.24451
G1 X-67.759 Y-101.032 E0.06504
G1 X-66.914 Y-101.305 E0.07753
G1 X-64.24 Y-102.108 E0.24376
G1 X-63.463 Y-102.33 E0.07055
G1 X-62.645 Y-102.522 E0.07336
G1 X-59.887 Y-103.106 E0.24613
G1 X-59.08 Y-103.265 E0.07181
G1 X-58.222 Y-103.392 E0.07573
G1 X-55.473 Y-103.741 E0.24194
G1 X-54.655 Y-103.833 E0.07187
G1 X-53.758 Y-103.89 E0.07847
G1 X-50.988 Y-104.01 E0.24207
G1 X-49.873 Y-104.043 E0.09739
G1 X47.691 Y-104.05 E8.5181
G1 X48.95 Y-104.05 E0.10992
G1 X51.143 Y-104.005 E0.19151
G1 F3600 E-9
G1 F3600 Z1.3
;MESH:200mmSQ.STL
G0 F9600 X66.8 Y66.8 Z1.3
;TYPE:WALL-INNER
G1 F3600 Z0.3
G1 F3600 E9
G1 F1800 X66.8 Y-66.8 E11.66433
G1 X-66.8 Y-66.8 E11.66433
G1 X-66.8 Y66.8 E11.66433
G1 X66.8 Y66.8 E11.66433
G0 F9600 X66.1 Y66.1
G1 F1800 X66.1 Y-66.1 E11.5421
G1 X-66.1 Y-66.1 E11.5421
G1 X-66.1 Y66.1 E11.5421
G1 X66.1 Y66.1 E11.5421
G0 F9600 X65.4 Y65.4
;TYPE:WALL-OUTER
G1 F1800 X65.4 Y-65.4 E11.41987
G1 X-65.4 Y-65.4 E11.41987
G1 X-65.4 Y65.4 E11.41987
G1 X65.4 Y65.4 E11.41987
G0 F9600 X65.4 Y65.05
G0 X66.17 Y65.05
G1 F3600 E-9
G1 F3600 Z1.3
G0 F9600 X85.558 Y82.606 Z1.3
;TYPE:WALL-INNER
G1 F3600 Z0.3
G1 F3600 E9
G1 F1800 X82.738 Y85.437 E0.34887
G1 X79.712 Y88.01 E0.34679
G1 X76.466 Y90.338 E0.34875
G1 X73.039 Y92.387 E0.34861
G1 X69.482 Y94.135 E0.34603
G1 X65.738 Y95.604 E0.35114
G1 X61.933 Y96.745 E0.34682
G1 X58.021 Y97.573 E0.34911
G1 X54.086 Y98.07 E0.34629
G1 X50.067 Y98.245 E0.35122
G1 X-47.691 Y98.25 E8.53504
G1 X-49.976 Y98.25 E0.1995
G1 X-53.884 Y98.088 E0.34149
G1 X-57.856 Y97.603 E0.34936
G1 X-61.752 Y96.793 E0.34743
G1 X-65.567 Y95.666 E0.34731
G1 X-69.299 Y94.217 E0.34953
G1 X-72.88 Y92.475 E0.34768
G1 X-76.302 Y90.443 E0.34747
G1 X-79.564 Y88.125 E0.34938
G1 X-82.606 Y85.558 E0.34752
G1 X-85.437 Y82.738 E0.34887
G1 X-88.01 Y79.712 E0.34679
G1 X-90.338 Y76.466 E0.34875
