;FLAVOR:RepRap
;TIME:23442
;Filament used: 43.1438m, 9.13919m
;Layer height: 0.2
;MINX:-254.042
;MINY:-254.042
;MINZ:0.3
;MAXX:254.042
;MAXY:254.042
;MAXZ:5.4
;Generated with Cura_SteamEngine 4.6.2
T0
M190 S65
M104 S220
M104 T1 S220
M109 S220
M109 T1 S220
M82 ;absolute extrusion mode
M203 Z10000
G28
G1 Y-250 Z20 F10000
G1 Z0.2
G92 E0
G1 X10. F3000
G1 Z50 F10000
G92 E0
G91
G1 Z1 F8000
G90
G1 X0 Y-240 F10000
T0 P0
G92 E0
G1 E145 F4000
G92 E0
G1 E15 F1000
G92 E0
M18 E1
G92 E0
G1 F3000 E-9
;LAYER_COUNT:19
;LAYER:0
M107
G1 F2700 Z1.8
G0 F9000 X12.214 Y-253.042 Z1.8
;TYPE:SKIRT
G1 F2700 Z0.3
G1 F3000 E0.8315
G1 F1500 X13.179 Y-253.003 E0.91582
G1 X25.104 Y-252.104 E1.95992
G1 X26.017 Y-252.022 E2.03996
G1 X26.529 Y-251.964 E2.08495
G1 X37.818 Y-250.529 E3.07849
G1 X38.698 Y-250.405 E3.15608
G1 X50.31 Y-248.338 E4.18584
G1 X51.169 Y-248.172 E4.26222
G1 X51.659 Y-248.065 E4.30601
G1 X62.548 Y-245.552 E5.2817
G1 X63.445 Y-245.332 E5.36233
G1 X74.62 Y-242.164 E6.37645
G1 X75.452 Y-241.915 E6.45227
G1 X86.337 Y-238.238 E7.45538
G1 X87.268 Y-237.909 E7.54159
G1 X97.895 Y-233.724 E8.53876
G1 X98.749 Y-233.374 E8.61934
G1 X109.15 Y-228.679 E9.61566
G1 X109.967 Y-228.295 E9.69447
G1 X120.059 Y-223.132 E10.6842
G1 X120.92 Y-222.676 E10.76926
G1 X130.687 Y-217.065 E11.7527
G1 X131.759 Y-216.422 E11.86184
G1 X140.987 Y-210.508 E12.81877
G1 X141.802 Y-209.971 E12.90398
G1 X150.921 Y-203.489 E13.88079
G1 X151.724 Y-202.901 E13.96768
G1 X160.567 Y-195.959 E14.94923
G1 X161.268 Y-195.391 E15.028
G1 X169.765 Y-188.038 E16.00906
G1 X170.477 Y-187.404 E16.09229
G1 X178.596 Y-179.669 E17.07134
G1 X179.272 Y-179.006 E17.15401
G1 X187 Y-170.908 E18.13131
G1 X187.649 Y-170.208 E18.21465
G1 X194.983 Y-161.747 E19.19225
G1 X195.597 Y-161.019 E19.2754
G1 X202.528 Y-152.209 E20.25409
G1 X203.136 Y-151.412 E20.34161
G1 X209.621 Y-142.301 E21.31799
G1 X210.17 Y-141.504 E21.40249
G1 X216.23 Y-132.06 E22.38218
G1 X216.759 Y-131.209 E22.46966
G1 X222.394 Y-121.418 E23.45596
G1 X222.854 Y-120.592 E23.5385
G1 X228.006 Y-110.542 E24.52452
G1 X228.434 Y-109.678 E24.60871
G1 X233.106 Y-99.355 E25.59799
G1 X233.5 Y-98.45 E25.68417
G1 X237.688 Y-87.843 E26.67982
G1 X238.022 Y-86.961 E26.76216
G1 X241.686 Y-76.143 E27.75936
G1 X242 Y-75.175 E27.84821
G1 X245.166 Y-64.052 E28.8579
G1 X245.396 Y-63.196 E28.93529
G1 X245.519 Y-62.691 E28.98067
G1 X248.023 Y-51.845 E29.95252
G1 X248.223 Y-50.92 E30.03515
G1 X250.296 Y-39.348 E31.06155
G1 X250.441 Y-38.461 E31.14002
G1 X250.515 Y-37.93 E31.18683
G1 X251.941 Y-26.704 E32.17483
G1 X252.046 Y-25.785 E32.25558
G1 X252.092 Y-25.259 E32.30168
G1 X252.958 Y-13.86 E33.29977
G1 X253.019 Y-12.891 E33.38454
G1 X253.331 Y-.808 E34.43984
G1 X253.342 Y0.115 E34.52043
G1 X253.335 Y0.648 E34.56697
G1 X253.042 Y12.214 E35.57709
G1 X253.003 Y13.179 E35.66141
G1 X252.104 Y25.104 E36.70551
G1 X252.022 Y26.017 E36.78555
G1 X251.964 Y26.529 E36.83053
G1 X250.529 Y37.818 E37.82408
G1 X250.405 Y38.698 E37.90167
G1 X248.338 Y50.31 E38.93143
G1 X248.172 Y51.169 E39.00781
G1 X248.065 Y51.659 E39.0516
G1 X245.552 Y62.548 E40.02729
G1 X245.332 Y63.445 E40.10792
G1 X242.164 Y74.621 E41.12212
G1 X241.915 Y75.452 E41.19786
G1 X238.238 Y86.337 E42.20096
G1 X237.909 Y87.268 E42.28717
G1 X233.724 Y97.895 E43.28435
G1 X233.374 Y98.749 E43.36493
G1 X228.679 Y109.15 E44.36125
G1 X228.295 Y109.967 E44.44006
G1 X223.132 Y120.059 E45.42979
G1 X222.676 Y120.92 E45.51485
G1 X217.066 Y130.686 E46.49817
G1 X216.421 Y131.76 E46.60755
G1 X210.508 Y140.987 E47.56436
G1 X209.971 Y141.802 E47.64957
G1 X203.489 Y150.921 E48.62638
G1 X202.901 Y151.724 E48.71327
G1 X195.959 Y160.567 E49.69481
G1 X195.391 Y161.268 E49.77359
G1 X188.038 Y169.765 E50.75465
G1 X187.404 Y170.477 E50.83788
G1 X179.669 Y178.596 E51.81693
G1 X179.006 Y179.272 E51.8996
G1 X170.908 Y187 E52.8769
G1 X170.208 Y187.649 E52.96024
G1 X161.747 Y194.983 E53.93784
G1 X161.019 Y195.597 E54.02099
G1 X152.209 Y202.528 E54.99967
G1 X151.412 Y203.136 E55.08719
G1 X142.301 Y209.621 E56.06358
G1 X141.504 Y210.17 E56.14808
G1 X132.06 Y216.23 E57.12777
G1 X131.209 Y216.759 E57.21525
G1 X121.418 Y222.394 E58.20155
G1 X120.592 Y222.854 E58.28409
G1 X110.542 Y228.006 E59.27011
G1 X109.678 Y228.434 E59.35429
G1 X99.354 Y233.107 E60.3437
G1 X98.452 Y233.499 E60.42956
G1 X87.843 Y237.688 E61.4254
G1 X86.961 Y238.022 E61.50775
G1 X76.143 Y241.686 E62.50495
G1 X75.175 Y242 E62.59379
G1 X64.052 Y245.166 E63.60349
G1 X63.196 Y245.396 E63.68088
G1 X62.691 Y245.519 E63.72626
G1 X51.845 Y248.023 E64.69811
G1 X50.92 Y248.223 E64.78073
G1 X39.347 Y250.296 E65.80723
G1 X38.462 Y250.44 E65.88551
G1 X37.93 Y250.515 E65.93242
G1 X26.704 Y251.941 E66.92041
G1 X25.783 Y252.046 E67.00135
G1 X25.259 Y252.092 E67.04727
G1 X13.86 Y252.958 E68.04536
G1 X12.891 Y253.019 E68.13013
G1 X0.808 Y253.331 E69.18542
G1 X-.115 Y253.342 E69.26601
G1 X-.648 Y253.335 E69.31255
G1 X-12.214 Y253.042 E70.32268
G1 X-13.179 Y253.003 E70.407
G1 X-25.104 Y252.104 E71.4511
G1 X-26.017 Y252.022 E71.53113
G1 X-26.529 Y251.964 E71.57612
G1 X-37.818 Y250.529 E72.56967
G1 X-38.698 Y250.405 E72.64726
G1 X-50.31 Y248.338 E73.67702
G1 X-51.169 Y248.172 E73.7534
G1 X-51.659 Y248.065 E73.79719
G1 X-62.548 Y245.552 E74.77287
G1 X-63.445 Y245.332 E74.85351
G1 X-74.621 Y242.164 E75.86771
G1 X-75.452 Y241.915 E75.94345
G1 X-86.337 Y238.238 E76.94655
G1 X-87.268 Y237.909 E77.03276
G1 X-97.895 Y233.724 E78.02993
G1 X-98.749 Y233.374 E78.11051
G1 X-109.15 Y228.679 E79.10683
G1 X-109.967 Y228.295 E79.18565
G1 X-120.059 Y223.132 E80.17537
G1 X-120.92 Y222.676 E80.26044
G1 X-130.687 Y217.065 E81.24387
G1 X-131.759 Y216.422 E81.35301
G1 X-140.987 Y210.508 E82.30994
G1 X-141.802 Y209.971 E82.39516
G1 X-150.921 Y203.489 E83.37196
G1 X-151.724 Y202.901 E83.45886
G1 X-160.567 Y195.959 E84.4404
G1 X-161.268 Y195.391 E84.51917
G1 X-169.766 Y188.037 E85.50036
G1 X-170.477 Y187.404 E85.58347
G1 X-178.596 Y179.669 E86.56252
G1 X-179.273 Y179.005 E86.64531
G1 X-187 Y170.908 E87.62249
G1 X-187.649 Y170.208 E87.70583
G1 X-194.983 Y161.747 E88.68343
G1 X-195.597 Y161.019 E88.76658
G1 X-202.529 Y152.208 E89.74538
G1 X-203.136 Y151.412 E89.83278
G1 X-209.621 Y142.301 E90.80917
G1 X-210.17 Y141.504 E90.89366
G1 X-216.23 Y132.06 E91.87335
G1 X-216.759 Y131.209 E91.96084
G1 X-222.394 Y121.418 E92.94713
G1 X-222.854 Y120.592 E93.02968
G1 X-228.006 Y110.542 E94.0157
G1 X-228.434 Y109.678 E94.09988
G1 X-233.107 Y99.354 E95.08928
G1 X-233.499 Y98.452 E95.17515
G1 X-237.688 Y87.843 E96.17099
G1 X-238.022 Y86.961 E96.25333
G1 X-241.686 Y76.143 E97.25053
G1 X-242 Y75.175 E97.33938
G1 X-245.166 Y64.052 E98.34908
G1 X-245.396 Y63.196 E98.42647
G1 X-245.519 Y62.691 E98.47185
G1 X-248.023 Y51.845 E99.4437
G1 X-248.223 Y50.92 E99.52632
G1 X-250.296 Y39.347 E100.55282
G1 X-250.44 Y38.462 E100.6311
G1 X-250.515 Y37.93 E100.67801
G1 X-251.941 Y26.704 E101.666
G1 X-252.046 Y25.783 E101.74693
G1 X-252.092 Y25.259 E101.79286
G1 X-252.958 Y13.86 E102.79095
G1 X-253.019 Y12.891 E102.87572
G1 X-253.331 Y0.808 E103.93101
G1 X-253.342 Y-.115 E104.0116
G1 X-253.335 Y-.648 E104.05814
G1 X-253.042 Y-12.214 E105.06827
G1 X-253.003 Y-13.179 E105.15259
G1 X-252.104 Y-25.104 E106.19669
G1 X-252.022 Y-26.017 E106.27672
G1 X-251.964 Y-26.529 E106.32171
G1 X-250.529 Y-37.818 E107.31526
G1 X-250.405 Y-38.698 E107.39285
G1 X-248.338 Y-50.31 E108.4226
G1 X-248.172 Y-51.169 E108.49899
G1 X-248.065 Y-51.659 E108.54278
G1 X-245.552 Y-62.548 E109.51846
G1 X-245.332 Y-63.445 E109.5991
G1 X-242.164 Y-74.621 E110.61329
G1 X-241.915 Y-75.452 E110.68903
G1 X-238.238 Y-86.337 E111.69214
G1 X-237.909 Y-87.268 E111.77835
G1 X-233.724 Y-97.895 E112.77552
G1 X-233.374 Y-98.749 E112.8561
G1 X-228.679 Y-109.15 E113.85242
G1 X-228.295 Y-109.967 E113.93124
G1 X-223.132 Y-120.059 E114.92096
G1 X-222.676 Y-120.92 E115.00602
G1 X-217.066 Y-130.686 E115.98934
G1 X-216.421 Y-131.76 E116.09872
G1 X-210.508 Y-140.987 E117.05553
G1 X-209.971 Y-141.802 E117.14074
G1 X-203.489 Y-150.921 E118.11755
G1 X-202.901 Y-151.724 E118.20444
G1 X-195.959 Y-160.567 E119.18599
G1 X-195.391 Y-161.268 E119.26476
G1 X-188.038 Y-169.765 E120.24582
G1 X-187.404 Y-170.477 E120.32906
G1 X-179.669 Y-178.596 E121.30811
G1 X-179.006 Y-179.272 E121.39077
G1 X-170.908 Y-187 E122.36807
G1 X-170.208 Y-187.649 E122.45142
G1 X-161.747 Y-194.983 E123.42901
G1 X-161.019 Y-195.597 E123.51216
G1 X-152.209 Y-202.528 E124.49085
G1 X-151.412 Y-203.136 E124.57837
G1 X-142.301 Y-209.621 E125.55476
G1 X-141.504 Y-210.17 E125.63925
G1 X-132.06 Y-216.23 E126.61894
G1 X-131.209 Y-216.759 E126.70642
G1 X-121.418 Y-222.394 E127.69272
G1 X-120.592 Y-222.854 E127.77527
G1 X-110.542 Y-228.006 E128.76129
G1 X-109.678 Y-228.434 E128.84547
G1 X-99.354 Y-233.107 E129.83487
G1 X-98.452 Y-233.499 E129.92074
G1 X-87.843 Y-237.688 E130.91658
G1 X-86.961 Y-238.022 E130.99892
G1 X-76.143 Y-241.686 E131.99612
G1 X-75.175 Y-242 E132.08497
G1 X-64.052 Y-245.166 E133.09467
G1 X-63.196 Y-245.396 E133.17205
G1 X-62.691 Y-245.519 E133.21743
G1 X-51.845 Y-248.023 E134.18928
G1 X-50.92 Y-248.223 E134.27191
G1 X-39.347 Y-250.296 E135.2984
G1 X-38.462 Y-250.44 E135.37669
G1 X-37.93 Y-250.515 E135.42359
G1 X-26.704 Y-251.941 E136.41159
G1 X-25.783 Y-252.046 E136.49252
G1 X-25.259 Y-252.092 E136.53844
G1 X-13.86 Y-252.958 E137.53653
G1 X-12.891 Y-253.019 E137.6213
G1 X-.808 Y-253.331 E138.6766
G1 X0.115 Y-253.342 E138.75719
G1 X12.214 Y-253.042 E139.81385
G1 F3000 E130.81385
G1 F2700 Z1.8
;MESH:SeeMeCNC Testing Wheel v4 DUAL Part A.stl
G0 F9000 X12.787 Y-247.924 Z1.8
;TYPE:WALL-INNER
G1 F2700 Z0.3
G1 F3000 E140.64535
G1 F1500 X25.406 Y-246.967 E141.75025
G1 X37.786 Y-245.393 E142.83983
G1 X50.044 Y-243.205 E143.92696
G1 X62.044 Y-240.435 E145.00221
G1 X73.814 Y-237.091 E146.07049
G1 X85.356 Y-233.186 E147.13431
G1 X96.628 Y-228.742 E148.19217
G1 X107.618 Y-223.774 E149.24516
G1 X118.326 Y-218.288 E150.29561
G1 X128.729 Y-212.307 E151.34328
G1 X138.807 Y-205.847 E152.38842
G1 X148.531 Y-198.933 E153.43013
G1 X157.911 Y-191.559 E154.47184
G1 X166.899 Y-183.775 E155.50994
G1 X175.538 Y-175.538 E156.55209
G1 X183.775 Y-166.899 E157.59424
G1 X191.559 Y-157.911 E158.63235
G1 X198.933 Y-148.531 E159.67406
G1 X205.847 Y-138.807 E160.71577
G1 X212.307 Y-128.729 E161.7609
G1 X218.289 Y-118.326 E162.80862
G1 X223.774 Y-107.618 E163.85903
G1 X228.74 Y-96.632 E164.91163
G1 X233.184 Y-85.362 E165.96933
G1 X237.086 Y-73.831 E167.03215
G1 X240.435 Y-62.044 E168.10198
G1 X243.205 Y-50.044 E169.17723
G1 X245.393 Y-37.786 E170.26436
G1 X246.965 Y-25.43 E171.35184
G1 X247.924 Y-12.793 E172.45832
G1 X248.25 Y-0.009 E173.57482
G1 X247.924 Y12.787 E174.69238
G1 X246.967 Y25.406 E175.79728
G1 X245.393 Y37.786 E176.88685
G1 X243.208 Y50.029 E177.97265
G1 X240.435 Y62.044 E179.04923
G1 X237.094 Y73.806 E180.11677
G1 X233.186 Y85.356 E181.18134
G1 X228.742 Y96.628 E182.23919
G1 X223.774 Y107.618 E183.29219
G1 X218.288 Y118.326 E184.34263
G1 X212.307 Y128.729 E185.39031
G1 X205.847 Y138.807 E186.43545
G1 X198.935 Y148.528 E187.47684
G1 X191.559 Y157.911 E188.51887
G1 X183.779 Y166.894 E189.55641
G1 X175.538 Y175.538 E190.59912
G1 X166.907 Y183.767 E191.64028
G1 X157.911 Y191.559 E192.67937
G1 X148.531 Y198.933 E193.72108
G1 X138.807 Y205.847 E194.76279
G1 X128.729 Y212.307 E195.80793
G1 X118.326 Y218.289 E196.85564
G1 X107.618 Y223.774 E197.90605
G1 X96.628 Y228.742 E198.95905
G1 X85.356 Y233.186 E200.0169
G1 X73.814 Y237.091 E201.08072
G1 X62.045 Y240.435 E202.14892
G1 X50.044 Y243.205 E203.22425
G1 X37.786 Y245.393 E204.31139
G1 X25.406 Y246.967 E205.40096
G1 X12.787 Y247.924 E206.50586
G1 X0.00 Y248.25 E207.62263
G1 X-12.787 Y247.924 E208.7394
G1 X-25.406 Y246.967 E209.8443
G1 X-37.786 Y245.393 E210.93387
G1 X-50.044 Y243.205 E212.02101
G1 X-62.045 Y240.435 E213.09634
G1 X-73.814 Y237.091 E214.16453
G1 X-85.356 Y233.186 E215.22835
G1 X-96.628 Y228.742 E216.28621
G1 X-107.618 Y223.774 E217.33921
G1 X-118.326 Y218.288 E218.38965
G1 X-128.729 Y212.307 E219.43733
G1 X-138.807 Y205.847 E220.48246
G1 X-148.531 Y198.933 E221.52417
G1 X-157.911 Y191.559 E222.56589
G1 X-166.907 Y183.767 E223.60497
G1 X-175.538 Y175.538 E224.64614
G1 X-183.779 Y166.894 E225.68885
G1 X-191.559 Y157.911 E226.72639
G1 X-198.935 Y148.528 E227.76841
G1 X-205.847 Y138.807 E228.80981
G1 X-212.307 Y128.729 E229.85494
G1 X-218.289 Y118.326 E230.90266
G1 X-223.774 Y107.618 E231.95307
G1 X-228.742 Y96.628 E233.00607
G1 X-233.186 Y85.356 E234.06392
G1 X-237.094 Y73.806 E235.12849
G1 X-240.435 Y62.044 E236.19603
G1 X-243.208 Y50.029 E237.27261
G1 X-245.393 Y37.786 E238.35841
G1 X-246.967 Y25.406 E239.44798
G1 X-247.924 Y12.787 E240.55288
G1 X-248.25 Y0.009 E241.66886
G1 X-247.924 Y-12.793 E242.78694
G1 X-246.965 Y-25.43 E243.89342
G1 X-245.393 Y-37.786 E244.98089
G1 X-243.205 Y-50.044 E246.06803
G1 X-240.435 Y-62.044 E247.14327
G1 X-237.093 Y-73.81 E248.21117
G1 X-233.184 Y-85.362 E249.27593
G1 X-228.74 Y-96.632 E250.33363
G1 X-223.774 Y-107.618 E251.38623
G1 X-218.288 Y-118.326 E252.43668
G1 X-212.307 Y-128.729 E253.48435
G1 X-205.847 Y-138.807 E254.52949
G1 X-198.933 Y-148.531 E255.5712
G1 X-191.559 Y-157.911 E256.61291
G1 X-183.775 Y-166.899 E257.65101
G1 X-175.538 Y-175.538 E258.69316
G1 X-166.899 Y-183.775 E259.73531
G1 X-157.911 Y-191.559 E260.77342
G1 X-148.531 Y-198.933 E261.81513
G1 X-138.807 Y-205.847 E262.85684
G1 X-128.729 Y-212.307 E263.90197
G1 X-118.326 Y-218.289 E264.94969
G1 X-107.618 Y-223.774 E266.0001
G1 X-96.628 Y-228.742 E267.05309
G1 X-85.356 Y-233.186 E268.11095
G1 X-73.814 Y-237.091 E269.17477
G1 X-62.044 Y-240.435 E270.24305
G1 X-50.044 Y-243.205 E271.3183
G1 X-37.786 Y-245.393 E272.40543
G1 X-25.406 Y-246.967 E273.49501
G1 X-12.787 Y-247.924 E274.59991
G1 X0.00 Y-248.25 E275.71668
G1 X12.787 Y-247.924 E276.83344
G0 F9000 X13.222 Y-215.247
G1 F1500 X13.222 Y-90.085 E287.76107
G1 X13.52 Y-49.123 E291.33747
G1 X19.548 Y-46.972 E291.89626
G1 X25.294 Y-44.236 E292.4519
G1 X54.341 Y-73.042 E296.02354
G1 X67.216 Y-85.919 E297.61337
G1 X142.506 Y-161.208 E306.90951
G1 X157.146 Y-175.847 E308.71708
G1 X146.233 Y-184.966 E309.95872
G1 X136.338 Y-192.387 E311.0386
G1 X126.053 Y-199.292 E312.12016
G1 X114.856 Y-205.981 E313.2589
G1 X81.853 Y-199.505 E316.19527
G1 X74.423 Y-202.409 E316.89176
G1 X66.336 Y-205.201 E317.63871
G1 X58.106 Y-207.679 E318.38912
G1 X49.744 Y-209.833 E319.14302
G1 X41.255 Y-211.658 E319.90111
G1 X32.644 Y-213.144 E320.66403
G1 X23.92 Y-214.286 E321.4322
G1 X13.222 Y-215.247 E322.36998
G0 F9000 X-13.222 Y-215.247
G1 F1500 X-23.966 Y-214.282 E323.31179
G1 X-32.731 Y-213.132 E324.08361
G1 X-41.383 Y-211.634 E324.85023
G1 X-49.913 Y-209.793 E325.61212
G1 X-58.312 Y-207.621 E326.36954
G1 X-66.578 Y-205.123 E327.12346
G1 X-74.7 Y-202.308 E327.87396
G1 X-82.264 Y-199.342 E328.58331
G1 X-120.936 Y-202.46 E331.97064
G1 X-130.412 Y-196.464 E332.94968
G1 X-139.147 Y-190.366 E333.87977
G1 X-147.585 Y-183.893 E334.80827
G1 X-157.151 Y-175.852 E335.89933
G1 X-67.265 Y-85.975 E346.99717
G1 X-53.298 Y-72 E348.7222
G1 X-53.228 Y-72.05 E348.72971
G1 X-25.282 Y-44.103 E352.18032
G1 X-19.424 Y-46.924 E352.74798
G1 X-13.272 Y-49.128 E353.31853
G1 X-13.272 Y-88.592 E356.76404
G1 X-13.222 Y-88.6 E356.76846
G1 X-13.222 Y-215.247 E367.82574
G0 F9000 X-120.768 Y-201.781
G0 X-130.046 Y-195.914
G0 X-138.756 Y-189.833
G0 X-147.172 Y-183.378
G0 X-156.155 Y-175.808
G0 X-161.215 Y-142.514
G1 F1500 X-175.84 Y-157.139 E369.63152
G1 X-183.178 Y-148.461 E370.62374
G1 X-189.016 Y-140.964 E371.45333
G1 X-194.557 Y-133.228 E372.28413
G1 X-199.788 Y-125.268 E373.11573
G1 X-204.702 Y-117.082 E373.94932
G1 X-209.291 Y-108.69 E374.7844
G1 X-213.543 Y-100.095 E375.62161
G1 X-217.453 Y-91.306 E376.46147
G1 X-221.01 Y-82.33 E377.30444
G1 X-224.207 Y-73.183 E378.15041
G1 X-227.031 Y-63.865 E379.00049
G1 X-229.477 Y-54.39 E379.85485
G1 X-231.538 Y-44.766 E380.71415
G1 X-233.202 Y-34.999 E381.57918
G1 X-234.458 Y-25.103 E382.45011
G1 X-235.459 Y-13.222 E383.49109
G1 X-90.049 Y-13.222 E396.18652
G1 X-48.955 Y-13.52 E399.77445
G1 X-46.824 Y-19.455 E400.32501
G1 X-44.147 Y-25.089 E400.8696
G1 X-73.034 Y-54.335 E404.45857
G1 X-74.977 Y-56.277 E404.69841
